src/svg/creative-commons-by.svg

<svg height="1000" width="968.8" xmlns="http://www.w3.org/2000/svg">
    <path d="m615 379.7v198h-55.2v235.4h-150.6v-235.2h-55.3v-198.2c0-8.6 3.1-16 9-22.1 6-6 13.5-9.2 22.1-9.2h199c8 0 15.2 3.2 21.7 9.2 6 6.3 9.3 13.5 9.3 22.1z m-198.2-124.4c0-45.5 22.5-68.4 67.4-68.4s67.4 22.9 67.4 68.4c0 44.9-22.5 67.4-67.4 67.4s-67.4-22.5-67.4-67.4z m66.8-239.7c276.9 0 485.2 215.1 485.2 484.4 0 287.3-231.5 484.4-485.2 484.4-261.7 0-483.6-213.9-483.6-484.4 0-259.6 204.5-484.4 483.6-484.4z m1.6 87.3c-230.9 0-397.9 191.2-397.9 397.1 0 214.5 178.1 396.1 397.9 396.1 201.5 0 396.1-158.4 396.1-396.1 0.1-222.3-176.2-397.1-396.1-397.1z" />
  </svg>

<svg height="1000" width="968.8" xmlns="http://www.w3.org/2000/svg"><path d="M615 379.7v198h-55.2v235.4H409.2V577.9h-55.3V379.7c0 -8.6 3.1 -16 9 -22.1 6 -6 13.5 -9.2 22.1 -9.2h199c8 0 15.2 3.2 21.7 9.2 6 6.3 9.3 13.5 9.3 22.1zM416.8 255.3c0 -45.5 22.5 -68.4 67.4 -68.4s67.4 22.9 67.4 68.4c0 44.9 -22.5 67.4 -67.4 67.4s-67.4 -22.5 -67.4 -67.4zM483.6 15.6c276.9 0 485.2 215.1 485.2 484.4 0 287.3 -231.5 484.4 -485.2 484.4C221.9 984.4 0 770.5 0 500 0 240.4 204.5 15.6 483.6 15.6zm1.6 87.3C254.3 102.9 87.3 294.1 87.3 500c0 214.5 178.1 396.1 397.9 396.1 201.5 0 396.1 -158.4 396.1 -396.1C881.4 277.7 705.1 102.9 485.2 102.9z"/></svg>
